_site/assets/img/design/logo/logo.svg

<?xml version="1.0" encoding="UTF-8"?>
<svg width="429px" height="82px" viewBox="0 0 429 82" version="1.1" xmlns="http://www.w3.org/2000/svg" xmlns:xlink="http://www.w3.org/1999/xlink">
    <!-- Generator: Sketch 41.2 (35397) - http://www.bohemiancoding.com/sketch -->
    <title>Artboard</title>
    <desc>Created with Sketch.</desc>
    <defs>
        <polygon id="path-1" points="42.8416034 50.2210547 42.8416034 0.637356604 0.41009117 0.637356604 0.41009117 50.2210547"></polygon>
        <polygon id="path-3" points="0 82 427.856643 82 427.856643 0 0 0"></polygon>
    </defs>
    <g id="Page-1" stroke="none" stroke-width="1" fill="none" fill-rule="evenodd">
        <g id="Artboard">
            <g id="Page-1">
                <path d="M148.020228,19.3374566 L136.314691,50.437117 L159.725765,50.437117 L148.020228,19.3374566 Z M167.723893,73.0288906 L162.943997,60.5107396 L133.096459,60.5107396 L128.316563,73.0288906 L115.34333,73.0288906 L140.899379,7.79789057 L155.141077,7.79789057 L180.697126,73.0288906 L167.723893,73.0288906 Z" id="Fill-1" fill="#FEFEFE"></path>
                <g id="Group-14">
                    <path d="M220.689618,58.8475321 L220.689618,40.0703057 C218.347893,36.5497208 213.374332,33.7137585 208.496446,33.7137585 C200.400328,33.7137585 195.230788,40.2667962 195.230788,49.4593057 C195.230788,58.555117 200.400328,65.1066075 208.496446,65.1066075 C213.374332,65.1066075 218.347893,62.368117 220.689618,58.8475321 Z M220.689618,73.0288906 L220.689618,66.5740981 C217.080198,71.2682113 211.618231,74.2024189 205.57064,74.2024189 C193.474687,74.2024189 184.598509,65.0091358 184.598509,49.4593057 C184.598509,34.2026642 193.377469,24.6187208 205.57064,24.6187208 C211.423023,24.6187208 216.88499,27.3572113 220.689618,32.3445132 L220.689618,7.79789057 L230.931481,7.79789057 L230.931481,73.0288906 L220.689618,73.0288906 Z" id="Fill-2" fill="#FEFEFE"></path>
                    <polygon id="Fill-4" fill="#FEFEFE" points="309.804011 73.0285811 309.804011 44.569166 275.956636 44.569166 275.956636 73.0285811 264.543525 73.0285811 264.543525 7.79758113 275.956636 7.79758113 275.956636 34.496317 309.804011 34.496317 309.804011 7.79758113 321.217122 7.79758113 321.217122 73.0285811"></polygon>
                    <path d="M367.378728,49.3616019 C367.378728,41.0486585 362.501613,33.7143 353.723425,33.7143 C345.041683,33.7143 340.163797,41.0486585 340.163797,49.3616019 C340.163797,57.772017 345.041683,65.1063755 353.723425,65.1063755 C362.501613,65.1063755 367.378728,57.772017 367.378728,49.3616019 M329.532289,49.3616019 C329.532289,35.864866 338.798884,24.6184887 353.723425,24.6184887 C368.842402,24.6184887 378.011778,35.864866 378.011778,49.3616019 C378.011778,62.9550358 368.842402,74.2021868 353.723425,74.2021868 C338.798884,74.2021868 329.532289,62.9550358 329.532289,49.3616019" id="Fill-6" fill="#FEFEFE"></path>
                    <g id="Group-10" transform="translate(385.015040, 23.981132)">
                        <mask id="mask-2" fill="white">
                            <use xlink:href="#path-1"></use>
                        </mask>
                        <g id="Clip-9"></g>
                        <path d="M0.41009117,25.3804698 C0.41009117,11.1024132 10.4567461,0.637356604 24.7964346,0.637356604 C33.9658108,0.637356604 39.5249959,4.54937547 42.8419892,9.04854528 L36.1107843,15.3076208 C33.4774049,11.5905453 29.8679854,9.73316792 25.2840688,9.73316792 C16.6995451,9.73316792 11.0423702,16.1871868 11.0423702,25.3804698 C11.0423702,34.5737528 16.6995451,41.1252434 25.2840688,41.1252434 C29.8679854,41.1252434 33.4774049,39.1696208 36.1107843,35.5507906 L42.8419892,41.809866 C39.5249959,46.3090358 33.9658108,50.2210547 24.7964346,50.2210547 C10.4567461,50.2210547 0.41009117,39.7559981 0.41009117,25.3804698" id="Fill-8" fill="#FEFEFE" mask="url(#mask-2)"></path>
                    </g>
                    <mask id="mask-4" fill="white">
                        <use xlink:href="#path-3"></use>
                    </mask>
                    <g id="Clip-12"></g>
                    <polygon id="Fill-11" fill="#FEFEFE" mask="url(#mask-4)" points="61.7220002 20.1170755 81.786762 20.1170755 81.786762 0 61.7220002 0"></polygon>
                    <polygon id="Fill-13" fill="#FEFEFE" mask="url(#mask-4)" points="61.7220774 53.255983 48.7341853 53.255983 48.7341853 33.1389075 28.6694235 33.1389075 28.6694235 20.1171528 48.7341853 20.1171528 48.7341853 7.73584906e-05 7.71573227e-05 7.73584906e-05 7.71573227e-05 82.0000774 81.7868391 82.0000774 81.7868391 33.1389075 61.7220774 33.1389075"></polygon>
                </g>
            </g>
        </g>
    </g>
</svg>

<svg width="429" height="82" xmlns="http://www.w3.org/2000/svg" xmlns:xlink="http://www.w3.org/1999/xlink"><defs><path id="a" d="M42.842 50.221V.637H.41v49.584z"/><path id="c" d="M0 82h427.857V0H0z"/></defs><g fill="none" fill-rule="evenodd"><path d="M148.02 19.337l-11.705 31.1h23.41l-11.705-31.1zm19.704 53.692l-4.78-12.518h-29.848l-4.78 12.518h-12.973L140.9 7.798h14.242l25.556 65.23h-12.973zM220.69 58.848V40.07c-2.342-3.52-7.316-6.356-12.194-6.356-8.096 0-13.265 6.553-13.265 15.745 0 9.096 5.17 15.648 13.265 15.648 4.878 0 9.852-2.739 12.194-6.26zm0 14.18v-6.454c-3.61 4.694-9.072 7.628-15.12 7.628-12.095 0-20.971-9.193-20.971-24.743 0-15.256 8.778-24.84 20.972-24.84 5.852 0 11.314 2.738 15.119 7.726V7.798h10.241v65.23H220.69zM309.804 73.029v-28.46h-33.847v28.46h-11.413V7.798h11.413v26.698h33.847V7.798h11.413v65.23zM367.379 49.362c0-8.313-4.877-15.648-13.656-15.648-8.681 0-13.56 7.335-13.56 15.648 0 8.41 4.879 15.744 13.56 15.744 8.779 0 13.656-7.334 13.656-15.744m-37.847 0c0-13.497 9.267-24.744 24.191-24.744 15.12 0 24.289 11.247 24.289 24.744 0 13.593-9.17 24.84-24.289 24.84-14.924 0-24.19-11.247-24.19-24.84" fill="#FEFEFE"/><g transform="translate(385.015 23.981)"><mask id="b" fill="#fff"><use xlink:href="#a"/></mask><path d="M.41 25.38C.41 11.102 10.457.637 24.796.637c9.17 0 14.729 3.912 18.046 8.412l-6.731 6.259c-2.634-3.717-6.243-5.575-10.827-5.575-8.584 0-14.242 6.454-14.242 15.647 0 9.194 5.658 15.745 14.242 15.745 4.584 0 8.193-1.955 10.827-5.574l6.731 6.259c-3.317 4.499-8.876 8.411-18.046 8.411C10.456 50.221.41 39.756.41 25.381" fill="#FEFEFE" mask="url(#b)"/></g><mask id="d" fill="#fff"><use xlink:href="#c"/></mask><path fill="#FEFEFE" mask="url(#d)" d="M61.722 20.117h20.065V0H61.722z"/><path fill="#FEFEFE" mask="url(#d)" d="M61.722 53.256H48.734V33.139H28.67V20.117h20.065V0H0v82h81.787V33.14H61.722z"/></g></svg>
